packages/ui/public/icons/delete-outline.svg

<svg width="24" height="25" viewBox="0 0 24 25" fill="none" xmlns="http://www.w3.org/2000/svg">
<path fill-rule="evenodd" clip-rule="evenodd" d="M20.4811 8.39975C20.9973 8.44225 21.3823 8.89351 21.3411 9.40977C21.3336 9.49477 20.6561 17.8836 20.2661 21.4024C20.0236 23.5862 18.581 24.915 16.4035 24.955C14.7372 24.9838 13.1297 25 11.5584 25C9.86465 25 8.21337 24.9813 6.5796 24.9475C4.48957 24.9062 3.0433 23.5512 2.80704 21.4112C2.41329 17.8611 1.73953 9.49352 1.73328 9.40977C1.69078 8.89351 2.07578 8.441 2.59204 8.39975C3.1008 8.386 3.5608 8.74351 3.60205 9.25851C3.60604 9.31277 3.88148 12.7299 4.18164 16.1108L4.24193 16.7854C4.39311 18.4659 4.54635 20.0807 4.67082 21.2049C4.80457 22.4212 5.46083 23.0487 6.61835 23.0725C9.7434 23.1387 12.9322 23.1425 16.3697 23.08C17.5998 23.0562 18.2648 22.4412 18.4023 21.1962C18.7898 17.7036 19.4648 9.34352 19.4723 9.25851C19.5135 8.74351 19.9698 8.3835 20.4811 8.39975ZM14.182 0C15.3295 0 16.3382 0.773761 16.6345 1.88253L16.952 3.4588C17.0546 3.97553 17.5081 4.35289 18.0331 4.36118L22.1353 4.36132C22.6528 4.36132 23.0728 4.78132 23.0728 5.29883C23.0728 5.81634 22.6528 6.23634 22.1353 6.23634L18.0698 6.23616C18.0634 6.23628 18.0571 6.23634 18.0508 6.23634L18.0203 6.23509L5.0521 6.23619C5.04202 6.23629 5.03193 6.23634 5.02182 6.23634L5.00257 6.23509L0.937514 6.23634C0.420006 6.23634 0 5.81634 0 5.29883C0 4.78132 0.420006 4.36132 0.937514 4.36132L5.03883 4.36007L5.1651 4.35207C5.63547 4.29105 6.02639 3.93381 6.12184 3.4588L6.4256 1.93878C6.73435 0.773762 7.74312 0 8.89063 0H14.182ZM14.182 1.87503H8.89063C8.59063 1.87503 8.32687 2.07628 8.25062 2.36504L7.95937 3.82756C7.92235 4.01281 7.86845 4.19133 7.79947 4.36165H15.2735C15.2044 4.19133 15.1504 4.01281 15.1132 3.82756L14.8095 2.30753C14.7457 2.07628 14.482 1.87503 14.182 1.87503Z" fill="white"/>
</svg>

<svg width="24" height="25" fill="none" xmlns="http://www.w3.org/2000/svg"><path fill-rule="evenodd" clip-rule="evenodd" d="M20.481 8.4a.939.939 0 0 1 .86 1.01c-.007.085-.685 8.474-1.075 11.992-.242 2.184-1.685 3.513-3.862 3.553-1.667.029-3.274.045-4.846.045-1.693 0-3.345-.019-4.978-.052-2.09-.042-3.537-1.397-3.773-3.537C2.413 17.861 1.74 9.494 1.733 9.41a.936.936 0 0 1 .859-1.01c.509-.014.969.344 1.01.859.004.054.28 3.47.58 6.852l.06.674c.151 1.68.304 3.296.429 4.42.134 1.216.79 1.844 1.947 1.868 3.125.066 6.314.07 9.752.007 1.23-.024 1.895-.639 2.032-1.884.388-3.492 1.063-11.852 1.07-11.937.041-.515.498-.876 1.01-.86ZM14.182 0c1.147 0 2.156.774 2.452 1.883l.318 1.576c.103.517.556.894 1.081.902h4.102a.938.938 0 0 1 0 1.875H.938a.938.938 0 0 1 0-1.875h4.1l.127-.009c.47-.061.861-.418.957-.893l.304-1.52C6.734.774 7.743 0 8.89 0h5.291Zm0 1.875H8.891c-.3 0-.564.201-.64.49l-.292 1.463c-.037.185-.09.363-.16.534h7.474a2.98 2.98 0 0 1-.16-.534l-.303-1.52c-.064-.232-.328-.433-.628-.433Z" fill="#fff"/></svg>
